packages/kaspersky-hexa-ui-icons/src/iconsSVGs/28x20/FlagKn.svg

<svg width="28" height="20" viewBox="0 0 28 20" fill="none" xmlns="http://www.w3.org/2000/svg">
<g clip-path="url(#clip0_5138_1220)">
<rect width="28" height="20" rx="2" fill="white"/>
<mask id="mask0_5138_1220" style="mask-type:luminance" maskUnits="userSpaceOnUse" x="0" y="0" width="28" height="20">
<rect width="28" height="20" rx="2" fill="white"/>
</mask>
<g mask="url(#mask0_5138_1220)">
<path fill-rule="evenodd" clip-rule="evenodd" d="M0 13.3333L28 0H0V13.3333Z" fill="#1EC160"/>
<path fill-rule="evenodd" clip-rule="evenodd" d="M0 20H28V6.66666L0 20Z" fill="#DF2A40"/>
<path fill-rule="evenodd" clip-rule="evenodd" d="M0.78392 25.3334L33.5751 4.84318L27.2161 -5.3334L-5.57511 15.1568L0.78392 25.3334Z" fill="#FFD956"/>
<path fill-rule="evenodd" clip-rule="evenodd" d="M-0.6292 23.0719L32.162 2.58172L28.6292 -3.07193L-4.16199 17.4183L-0.6292 23.0719Z" fill="#262626"/>
<path fill-rule="evenodd" clip-rule="evenodd" d="M20.3094 7.79744L19.364 9.2948L18.7506 7.6336L17.0343 7.19717L18.4247 6.10042L18.3094 4.33334L19.7821 5.31671L21.4271 4.66102L20.9469 6.36552L22.0789 7.72737L20.3094 7.79744Z" fill="white"/>
<path fill-rule="evenodd" clip-rule="evenodd" d="M9.64274 14.2641L8.69733 15.7615L8.0839 14.1003L6.36768 13.6638L7.75801 12.5671L7.64274 10.8L9.11544 11.7834L10.7604 11.1277L10.2803 12.8322L11.4122 14.194L9.64274 14.2641Z" fill="white"/>
</g>
</g>
<defs>
<clipPath id="clip0_5138_1220">
<rect width="28" height="20" fill="white"/>
</clipPath>
</defs>
</svg>

<svg xmlns="http://www.w3.org/2000/svg" width="28" height="20" fill="none" viewBox="0 0 28 20"><g clip-path="url(#a)"><rect width="28" height="20" fill="#fff" rx="2"/><mask id="b" width="28" height="20" x="0" y="0" maskUnits="userSpaceOnUse" style="mask-type:luminance"><rect width="28" height="20" fill="#fff" rx="2"/></mask><g fill-rule="evenodd" clip-rule="evenodd" mask="url(#b)"><path fill="#1ec160" d="M0 13.3333 28 0H0z"/><path fill="#df2a40" d="M0 20h28V6.6667z"/><path fill="#ffd956" d="M.784 25.3334 33.575 4.8432 27.216-5.3334-5.5752 15.1568z"/><path fill="#262626" d="M-.6292 23.0719 32.162 2.5817l-3.5328-5.6536L-4.162 17.4183z"/><path fill="#fff" d="m20.309 7.797-.945 1.497-.613-1.661-1.716-.436 1.39-1.097-.115-1.767 1.473.983 1.645-.656-.48 1.705 1.132 1.362zM9.643 14.264l-.945 1.497-.613-1.661-1.716-.436 1.39-1.097-.116-1.767 1.473.983 1.645-.656-.48 1.705 1.132 1.362z"/></g></g><defs><clipPath id="a"><path fill="#fff" d="M0 0h28v20H0z"/></clipPath></defs></svg>
